X:102
T:Carrick's Rant
R:Strathspey
B:The Athole Collection
M:C
L:1/8
K:D
A,|D3F A/A/A A>F|A>Bd>A F/F/F F>D|1 E2 D>F B/B/B B>A|d>fe>d B<A B>d:|2
GDE>F B/B/B B||
c|:d2 d>f d/d/d d>A|B>Ad>A F/F/F F>D|1 e3f e/e/e e>f|g>f e<d B/B/B Be:|2
GDE>F B/B/B B||
